X:2288
T:Bulgarian (?) 5
S:Ian McArdle
R:Other
O:Bulgaria ?
M:15/16
L:1/16
K:Bm
"Hm"B2(ef) (fB)(fB) (~f2e) (edef)| \
.d2.c2.d2~c2 A^GA B2(BF)|      \
B2(ef) (fB)(fB) (~f2e) (edef)|  \
.d2.c2.d2~c2 (A^GA) ~B4 ::      \
"Hm".d2.c2.d2~c2 "A"(~A2A) Bcde|   \
"Hm".d2.c2.d2~c2 (A^GA) ~B2(BF) :: \
"Hm"(de)(ec) (dB)(cA) (~B2c) ~d2(dA) |\
(de)(ec) (dB)(cA) (~B2e) ~B2(BA)    ::\
"H"(agfe) (f^d)(e=c) (def) (~d3F) |\
(^GAB=c) (^de)~d2 (cBA) ~B2(BF) ::  \
"H"(^de)~f2 (~fe)~f2 (e^d=c) ~d2(dF)|\
(^GABc) (ec)~^d2 (cBA) (B2B2) :: \
"H"(ef)(fB) (ef)(fB) (^gfe) ~^d2(cB) |\
(ef)(fB) (ef)(fB) (^gfe) ~f2(fB) :: \
(eF)~^d2 (ef)~d2 (B^AB) (c^def) |\
(eF)~^d2 (ef)~d2 (BdB) ~c2(cF) :|


